svgs/sharp-solid/chart-bullet.svg

<svg xmlns="http://www.w3.org/2000/svg" viewBox="0 0 512 512"><!--! Font Awesome Pro 6.6.0 by @fontawesome - https://fontawesome.com License - https://fontawesome.com/license (Commercial License) Copyright 2024 Fonticons, Inc. --><path d="M288 32l0 24 0 8 160 0 64 0 0 64 0 32 0 64-64 0-160 0 0 8 0 24-48 0 0-24 0-8L64 224 0 224l0-64 0-32L0 64l64 0 176 0 0-8 0-24 48 0zM160 128l0 32 80 0 0-32-80 0zm128 0l0 32 160 0 0-32-160 0zm48 224l-80 0 0 32 80 0 0-32zm0-64l0-8 0-24 48 0 0 24 0 8 64 0 64 0 0 64 0 32 0 64-64 0-64 0 0 8 0 24-48 0 0-24 0-8L64 448 0 448l0-64 0-32 0-64 64 0 272 0zm48 64l0 32 64 0 0-32-64 0z"/></svg>

<svg xmlns="http://www.w3.org/2000/svg" viewBox="0 0 512 512"><!--! Font Awesome Pro 6.4.0 by @fontawesome - https://fontawesome.com License - https://fontawesome.com/license (Commercial License) Copyright 2023 Fonticons, Inc. --><path d="M288 32V56v8H448h64v64 32 64H448 288v8 24H240V232v-8H64 0V160 128 64H64 240V56 32h48zM160 128v32h80V128H160zm128 0v32H448V128H288zm48 224H256v32h80V352zm0-64v-8V256h48v24 8h64 64v64 32 64H448 384v8 24H336V456v-8H64 0V384 352 288H64 336zm48 64v32h64V352H384z"/></svg>
